X: 4
T: Greensleeves
R: jig
M: 6/8
L: 1/8
K: Amin
"C"c2de2e | "G"d2BG3 |"am"A>Bc dec | "E"B2^GE3 |"C"c2de>dc | "G"d2BG>AB | "am"c>BA"E"~B>A^G | "am"A3-A3 |]"var. 1"c>dee>fe | d>edB>cd | c>BcA>Bc | B>AB^G>AB |c>dee>fg | d>edB>cd | cBA~^G>^FG | A3-A3 |]"var. 2"g2ggfe | d2dBcd | c2cABc | B2B^GAB |g2ggfe | d2dBcd | edcd~B2 |A3-A3 |]"var. 3"e.c.A e.c.A | d.B.G d.B.G | e.c.A e.c.A | B.^G.E B.G.E |g.e.cg.e.c | d.B.G d.B.G | e.c.A B.^G.E | A3-A3 |]"var. 4"gca~g>fe | dBGdDF/G/ | AABcBA | ^GEB~ee>f |gca~g>fe | dBGdDe/d/ | cBAB^GE | A3-A3 |]"var. 5"A/B/cAc/d/eA| G/A/BGB/c/dG | A/B/cAc/d/eA | E/^F/^GEG/A/BE |c/d/ece/f/gc | G/A/BGB/c/dG | A/B/cA^G/A/BG | A3-A3 |]"var. 6"c.c.cc.c.c | g.g.gG>AB | a.a.aA>B c/d/ | e.e.e~^G.E.E |C.C.CC>D E/F/ | GGA~B>AG |cBA^G>^FG | A3-A3 |]"var. 7"cABcde | BGABcd | cABcde | B2^GE3 |ecdefg | BGABcd | ~cAc~B^GE | A3-A3 |]


Tune 1598	Setting 15007

